images/Traffic_Sign_GR_-_KOK_2009_-_P-43.svg

<svg width="460" height="655" fill="none" xmlns="http://www.w3.org/2000/svg"><path d="M460 0H0v655h460V0z" fill="#0C479D"/><path d="M53 505V150h355v355H53z" fill="#fff"/><path fill-rule="evenodd" clip-rule="evenodd" d="m117.392 463.884-.541 11.532L74 475.315 74.126 489l311.334-.539.54-13.146-39.619.409.126-11.371c6.086-14.947 20.284-23.878 30.266-47.731 19.811-47.319-1.835-92.327-43.638-113.453-71.851-36.331-212.224-46.4-251.62 46.94-14.961 35.473-4.85 69.428 21.361 96.828 7.605 7.947 14.61 9.118 14.61 16.941l-.094.006zm216.787-78.548h-70.772v-41.08h70.741v41.08h.031zm-195.203-41.08 33.278.192.163 40.888H138.98v-41.08h-.004zm-11.315 131.002-.126-15.49 78.695.224 4.85 15.33-83.451-.063.032-.001zm130.358-15.584 78.538.318v15.74l-83.832-.41" fill="#000"/><path fill-rule="evenodd" clip-rule="evenodd" d="m224.375 163.084-4.718 3.953 7.768 9.685-60.812 81.186-14.613-.02.064 5.112L308 262.936v-5.048h-14.156l-59.317-81.013 8.611-9.683-4.226-4.192-7.72 8.016-6.801-7.936-.016.004zm21.541 94.808h-30.039l14.853-20.146" fill="#000"/></svg>

<svg width="460" height="655" viewBox="0 0 460 655" fill="none" xmlns="http://www.w3.org/2000/svg">
<path d="M460 0H0V655H460V0Z" fill="#0C479D"/>
<path d="M53 505V150H408V505H53Z" fill="white"/>
<path fill-rule="evenodd" clip-rule="evenodd" d="M117.392 463.884L116.851 475.416L74 475.315L74.1256 489L385.46 488.461L386 475.315L346.381 475.724L346.507 464.353C352.593 449.406 366.791 440.475 376.773 416.622C396.584 369.303 374.938 324.295 333.135 303.169C261.284 266.838 120.911 256.769 81.5154 350.109C66.5538 385.582 76.6656 419.537 102.876 446.937C110.481 454.884 117.486 456.055 117.486 463.878L117.392 463.884ZM334.179 385.336H263.407V344.256H334.148V385.336H334.179ZM138.976 344.256L172.254 344.448L172.417 385.336H138.98V344.256L138.976 344.256ZM127.661 475.258L127.535 459.768L206.23 459.992L211.08 475.322L127.629 475.259L127.661 475.258ZM258.019 459.674L336.557 459.992V475.732L252.725 475.322" fill="black"/>
<path fill-rule="evenodd" clip-rule="evenodd" d="M224.375 163.084L219.657 167.037L227.425 176.722L166.613 257.908L152 257.888L152.064 263L308 262.936V257.888H293.844L234.527 176.875L243.138 167.192L238.912 163L231.192 171.016L224.391 163.08L224.375 163.084ZM245.916 257.892H215.877L230.73 237.746" fill="black"/>
</svg>
